X:1
T:[ID 2-72a]
T:[ID 2-72a]
T:Bezeichnung standardisiert: Menuett Menuet No 5. In dieser Quelle auch als: Menuetto
T:Urheber unbekannt Erstbeleg: 1767 (Datum in der schriftlichen Quelle) Datum in der hier transkribierten schriftlichen Quelle: 1776 - 1791
C:Urheber unbekannt
C:Erstbeleg: 1767 (Datum in der schriftlichen Quelle)
C:Datum in der hier transkribierten schriftlichen Quelle: 1776 - 1791
L:1/8
M:3/4
K:G
V:1 treble 
V:1
 G2 G4 | g2 g4 | bagfed | Tc4 B2 | [Ad]2 [Ad]2 [Ad]2 | AB c4 | Bd c2 B2 |{B} A6 :: BcdBcd | %9
 e2 edcB | ABcABc | d2 dcBA | G2 G4 | g2 g4 | (3edc B2 A2 |{A} G6 :| %16

